!!!!SEGMENT: pl-sa--554-a-ix-34--003_anonim--preludium.krn
!!!cenid: 18xx:566
!!!COM: Anonim
!!!COM-rismID: pe30004985
!!!CDT:
!!!CNT:
!!!OTL: Preludium
!!!PDT:
!!!AGN: Secular; Prelude
!!!SMS-siglum: PL-SA
!!!SMS-shelfmark: 554/A IX 34
!!!SMS-shelfwork: 003 W
!!!SMS-variant:
!!!SMS-altvar:
!!!NIFC-rismSourceID: 1001069595
!!!NIFC-islandoraID:
!!!URL-pdf-islandora:
!!!URL-scan: https://bc.bdsandomierz.pl/dlibra/publication/1310/edition/1278/content @EN{Scan on Cyfrowa Biblioteka Diecezjalna w Sandomierzu} @PL{Skany w portalu Cyfrowa Biblioteka Diecezjalna w Sandomierzu}
!!!ONB-nifc: Str. 2, s. 1-3
!!!AIN: 1 piano
!!!key:
**kern	**kern
*part1	*part1
*staff2	*staff1
*Ipiano	*Iempty
*I"Piano	*
*clefF4	*clefC1
*k[]	*
*C:	*
*M4/4	*M4/4
*met(C.)	*met(c)
*>[A,A]	*>[A,A]
=1	=1
*>A	*>A
!	!LO:TX:b:i:t=Preludium
1CC	1r
=2	=2
1EE	1r
=3	=3
1GG	1r
=4	=4
2C 2GG 2EE 2CC/	2c< 2G< 2E</
2C 2BB-X 2GG 2EE 2CC/	2B-X< 2G< 2E</
=5	=5
1C 1CC	2A< 2F</
.	2A-X< 2F</
=6	=6
2D 2BBn 2FF 2DD/	2A-X< 2F</
2C#X 2GG 2EE/	2B-X< 2G</
=7	=7
1Cn 1CC	1B-X< 1G< 1E<
=8	=8
4F 4FF/	8A/L
.	8c#X/
4F#X 4AA/	8d/
.	8cn/J
4G 4GG/	8B/L
.	8d#X/
4G#X 4BB/	8e/
.	8dn/J
=9	=9
4AA/	16c#X\LL
.	16A\
.	16c#\
.	16e\JJ
4C#X/	8a\L
.	8gn\J
4D 4DD/	8f#X\L
.	8a#X\
4D#X/	8b\
.	8an\J
=10	=10
4E 4EE/	16g#X\LL
.	16e\
.	16g#\
.	16b\JJ
4G#X 4EE/	8ee\L
.	8ddn\J
4A 4AA/	8cc#X\L
.	8ee\
4c#X 4C#X/	8aa\
.	8gg\J
!!LO:LB:g=original
=11	=11
*2\right	*
2A 2F 2D\	16ff#X\LL
.	16gg\
.	16aa\
.	16gg\JJ
.	16ff#\LL
.	16ee\
.	16dd\
.	16ccn\JJ
2B 2G 2D\	8b\L
.	8dd\
.	8gg\
.	8ffn\J
=12	=12
2G 2E 2C\	16ee\LL
.	16ff\
.	16gg\
.	16ff\JJ
.	16ee\LL
.	16dd\
.	16cc\
.	16b-X\JJ
2A 2F 2C\	8a\L
.	8cc\
.	8ff\
.	8ee-X\J
=13	=13
2F 2D 2BB-X/	16dd\LL
.	16ee-X\
.	16ff\
.	16ee-\JJ
.	16dd\LL
.	16cc\
.	16b-X\
.	16a-X\JJ
2G 2E-X 2BB-X/	8g\L
.	8b-X\
.	8ee-X\
.	8dd-X\J
=14	=14
2G-X 2E-X 2C/	16cc\LL
.	16dd-X\
.	16ee-X\
.	16dd-X\JJ
.	16cc\LL
.	16b-X\
.	16a-X\
.	16g-X\JJ
2A-X 2F 2D-X/	8f\L
.	8a-X\
.	8dd-X\
.	8cc-X\J
=15	=15
2A#X 2F#X 2C#X/	16a#X\LL
.	16b\
.	16cc#X\
.	16b\JJ
.	16a#X\LL
.	16g#X\
.	16f#X\
.	16e\JJ
2B 2F#X 2D#X\	8d#X\L
.	8f#X\
.	8b\
.	8an\J
!!LO:LB:g=original
=16	=16
2B 2G#X 2E\	16g#X\LL
.	16a\
.	16b\
.	16a\JJ
.	16g#X\LL
.	16f#X\
.	16e\
.	16d\JJ
2G# 2E 2C#X\	8c#X/L
.	8e/
.	8a/
.	8g#/J
=17	=17
2A 2F#X 2D\	16f#X\LL
.	16g\
.	16a\
.	16g\JJ
.	16f#/LL
.	16e/
.	16d/
.	16c/JJ
2G 2D 2GG\	8B/L
.	8d/
.	8g/
.	8f#/J
=18	=18
2G 2E 2C\	16e/LL
.	16c/
.	16d/
.	16e/JJ
.	16f\LL
.	16g\
.	16a\
.	16b\JJ
2G 2E 2C\	8cc\L
.	8g\
.	8e\
.	8c\J
=19	=19
4A 4F 4C\	16a/LL
.	16f/
.	16c/
.	16a/JJ
4G 4E 4C\	16g/LL
.	16e/
.	16c/
.	16g/JJ
4F 4D 4BB 4GG/	16f/LL
.	16d/
.	16B/
.	16d/JJ
.	8qd/
4G 4E 4C/	4c/
=:|!	=:|!
*-	*-
!!!system-decoration: {s1,s2}
!!!RDF**kern: < = below
!!!ENC: Marta Lawrence
!!!END: 2020-12-13
!!!ENC: Anastazja Marusiak
!!!END: 2020-06-18
